public/assets/img/home1/icon/xd-icon.svg

<svg width="24" height="24" viewBox="0 0 24 24" fill="none" xmlns="http://www.w3.org/2000/svg">
<mask id="mask0_1531_62725" style="mask-type:alpha" maskUnits="userSpaceOnUse" x="0" y="0" width="24" height="24">
<rect width="24" height="24" fill="#D9D9D9"/>
</mask>
<g mask="url(#mask0_1531_62725)">
</g>
<g clip-path="url(#clip0_1531_62725)">
<path d="M4.24999 0.299988H19.75C22.0972 0.299988 24 2.20278 24 4.54998V19.45C24 21.7972 22.0972 23.7 19.75 23.7H4.24999C1.90279 23.7 0 21.7972 0 19.45V4.54998C0 2.20278 1.90279 0.299988 4.24999 0.299988Z" fill="#470137"/>
<path d="M12.6171 6.45387L9.6225 11.3966L12.8264 16.6452C12.8469 16.6819 12.8527 16.7251 12.8425 16.7659C12.8317 16.8036 12.7943 16.7799 12.7299 16.7905H10.4437C10.2826 16.7905 10.1699 16.7848 10.1055 16.6774C9.89183 16.261 9.67716 15.845 9.46153 15.4296C9.24029 15.0047 9.01219 14.5833 8.77732 14.1658C8.5341 13.7335 8.29526 13.2988 8.06085 12.8617H8.04473C7.82827 13.2942 7.60552 13.7236 7.37654 14.1496C7.14742 14.5757 6.91934 15.0024 6.69233 15.4296C6.46688 15.8538 6.23611 16.2751 6.00005 16.6934C5.95702 16.79 5.88179 16.8 5.77459 16.8H3.5689C3.5261 16.8 3.50196 16.8169 3.49643 16.7739C3.49037 16.7347 3.49898 16.6945 3.52062 16.6612L6.62788 11.5575L3.6011 6.43775C3.5689 6.395 3.56355 6.36013 3.58498 6.33313C3.59687 6.31939 3.61179 6.30861 3.62856 6.30162C3.64534 6.29463 3.6635 6.29164 3.68163 6.29286H5.95168C6.00118 6.29014 6.05067 6.2984 6.09661 6.31705C6.13511 6.33886 6.16815 6.36914 6.19322 6.40559C6.39061 6.84335 6.60545 7.27302 6.83722 7.69359C7.07155 8.12007 7.31039 8.54407 7.55368 8.96551C7.79325 9.38042 8.01616 9.80473 8.22186 10.2374H8.23799C8.44879 9.80481 8.66617 9.37543 8.89005 8.94943C9.10993 8.53085 9.3353 8.10955 9.5662 7.68557C9.79409 7.26704 10.0168 6.84572 10.2344 6.42172C10.2467 6.38199 10.2689 6.34601 10.2988 6.3171C10.3386 6.29694 10.3832 6.28855 10.4276 6.29291H12.5367C12.5604 6.28706 12.5855 6.29088 12.6065 6.30353C12.6274 6.31617 12.6425 6.33661 12.6484 6.36036C12.6525 6.37731 12.6518 6.39508 12.6462 6.41163C12.6407 6.42817 12.6306 6.44282 12.6171 6.45387ZM17.2376 16.9994C16.4966 17.0106 15.7623 16.8566 15.0883 16.5486C14.4603 16.2579 13.9354 15.7835 13.583 15.1881C13.2179 14.5818 13.0355 13.8224 13.0356 12.9099C13.0295 12.171 13.2183 11.4435 13.583 10.8008C13.9586 10.1461 14.511 9.6105 15.1768 9.25519C15.8744 8.86881 16.717 8.67559 17.7046 8.67559C17.7581 8.67559 17.8279 8.67827 17.9139 8.68366C17.9996 8.68919 18.1016 8.6972 18.2197 8.7078V5.53609C18.2197 5.46114 18.252 5.4234 18.3164 5.4234H20.345C20.3581 5.42153 20.3715 5.42274 20.384 5.42693C20.3966 5.43113 20.408 5.43819 20.4174 5.44756C20.4268 5.45693 20.4338 5.46836 20.438 5.48093C20.4422 5.49351 20.4434 5.50689 20.4416 5.52001V15.0351C20.4416 15.2178 20.4496 15.4164 20.4657 15.6309C20.4818 15.8457 20.4952 16.0389 20.506 16.2105C20.5079 16.2439 20.4998 16.2772 20.4825 16.3059C20.4653 16.3346 20.4398 16.3575 20.4093 16.3715C19.886 16.5897 19.3409 16.7516 18.7833 16.8544C18.2734 16.9486 17.7561 16.9971 17.2376 16.9994ZM18.2197 15.003V10.6077C18.1327 10.5841 18.0438 10.5679 17.9541 10.5594C17.8444 10.5483 17.7342 10.5429 17.624 10.5433C17.2333 10.5394 16.8472 10.6276 16.497 10.8008C16.1559 10.9704 15.8647 11.2256 15.6518 11.5415C15.4317 11.8634 15.3216 12.2874 15.3217 12.8134C15.3139 13.1643 15.3712 13.5137 15.4907 13.8438C15.588 14.1097 15.7418 14.3514 15.9415 14.5522C16.1327 14.7369 16.3642 14.8746 16.6177 14.9547C16.8855 15.0414 17.1654 15.0848 17.4468 15.0834C17.597 15.0834 17.7366 15.078 17.8654 15.0673C17.9854 15.0583 18.1042 15.0368 18.2197 15.003Z" fill="#FF61F6"/>
</g>
<defs>
<clipPath id="clip0_1531_62725">
<rect width="24" height="24" fill="white"/>
</clipPath>
</defs>
</svg>

<svg xmlns="http://www.w3.org/2000/svg" width="24" height="24" fill="none" viewBox="0 0 24 24">
    <mask id="a" width="24" height="24" x="0" y="0" maskUnits="userSpaceOnUse" style="mask-type:alpha">
        <path fill="#d9d9d9" d="M0 0h24v24H0z"/>
    </mask>
    <g clip-path="url(#b)">
        <path fill="#470137" d="M4.25.3h15.5A4.25 4.25 0 0 1 24 4.55v14.9a4.25 4.25 0 0 1-4.25 4.25H4.25A4.25 4.25 0 0 1 0 19.45V4.55A4.25 4.25 0 0 1 4.25.3"/>
        <path fill="#ff61f6" d="m12.617 6.454-2.995 4.943 3.204 5.248c.02.037.027.08.016.12s-.048.015-.112.026h-2.286c-.161 0-.274-.006-.339-.114q-.32-.624-.643-1.247-.333-.638-.685-1.264a74 74 0 0 1-.716-1.304h-.016q-.326.649-.668 1.288-.345.639-.685 1.28-.338.636-.692 1.263c-.043.097-.118.107-.225.107H3.569c-.043 0-.067.017-.073-.026a.16.16 0 0 1 .025-.113l3.107-5.104L3.6 6.437q-.048-.063-.016-.104a.12.12 0 0 1 .097-.04h2.27a.34.34 0 0 1 .145.024.3.3 0 0 1 .096.089q.297.656.644 1.288.352.639.717 1.272.36.622.668 1.271h.016q.316-.649.652-1.288.33-.628.676-1.263.341-.628.668-1.264a.25.25 0 0 1 .065-.105.23.23 0 0 1 .129-.024h2.109a.092.092 0 0 1 .08.16m4.62 10.545a5 5 0 0 1-2.149-.45 3.4 3.4 0 0 1-1.505-1.36q-.547-.91-.547-2.28a4.2 4.2 0 0 1 .547-2.108 4 4 0 0 1 1.594-1.546q1.046-.58 2.528-.58.08 0 .209.009t.306.024V5.536q0-.113.096-.113h2.029a.085.085 0 0 1 .097.097v9.515q0 .274.024.596t.04.58a.17.17 0 0 1-.097.16 8 8 0 0 1-1.626.483 8.7 8.7 0 0 1-1.545.145m.983-1.996v-4.395a1.6 1.6 0 0 0-.266-.049 3 3 0 0 0-.33-.016 2.5 2.5 0 0 0-1.127.258 2.2 2.2 0 0 0-.845.74q-.33.483-.33 1.272c-.008.351.05.7.169 1.03.097.267.25.508.45.71.192.184.423.322.677.402.268.086.547.13.829.128q.225 0 .418-.016.181-.013.355-.064"/>
    </g>
    <defs>
        <clipPath id="b">
            <path fill="#fff" d="M0 0h24v24H0z"/>
        </clipPath>
    </defs>
</svg>
